packages/katcn/src/icons/svg/signIn.svg

<svg width="24" height="24" viewBox="0 0 24 24" fill="none" xmlns="http://www.w3.org/2000/svg">
<path d="M9.52727 1.08096L5.05455 1.85199C3.30909 2.18242 2 3.72447 2 5.59695V18.2637C2 20.1362 3.30909 21.6782 5.05455 22.0087L9.52727 22.8899C9.74545 23 9.96364 23 10.1818 23C11.0545 23 11.9273 22.6696 12.5818 22.1188C13.4545 21.3478 14 20.3565 14 19.1449V4.82593C14 3.72447 13.4545 2.62301 12.5818 1.85199C11.8182 1.08096 10.6182 0.860673 9.52727 1.08096ZM11.8182 19.1449C11.8182 19.5855 11.6 20.1362 11.2727 20.3565C10.9455 20.6869 10.4 20.7971 9.96364 20.6869L5.49091 19.8058C4.72727 19.8058 4.18182 19.1449 4.18182 18.3739V5.59695C4.18182 4.82592 4.72727 4.16505 5.49091 3.94476L9.96364 3.17374C10.0727 3.17374 10.1818 3.17374 10.2909 3.17374C10.6182 3.17374 11.0545 3.28388 11.2727 3.50417C11.6 3.83461 11.8182 4.2752 11.8182 4.82593V19.1449Z" fill="black"/>
<path d="M17.9836 3H16.1475C15.459 3 15 3.44737 15 4.11842C15 4.78947 15.459 5.23684 16.1475 5.23684H17.9836C18.9016 5.23684 19.7049 6.01974 19.7049 6.91447V16.0855C19.7049 16.9803 18.9016 17.7632 17.9836 17.7632H16.1475C15.459 17.7632 15 18.2105 15 18.8816C15 19.5526 15.459 20 16.1475 20H17.9836C20.1639 20 22 18.2105 22 16.0855V6.91447C22 4.78947 20.1639 3 17.9836 3Z" fill="black"/>
<path d="M9 10C8.4 10 8 10.4444 8 11.1111V12.8889C8 13.5556 8.4 14 9 14C9.6 14 10 13.5556 10 12.8889V11.1111C10 10.4444 9.6 10 9 10Z" fill="black"/>
</svg>

<svg xmlns="http://www.w3.org/2000/svg" fill="none" viewBox="0 0 24 24"><path fill="#000" d="m9.527 1.081-4.472.771C3.309 2.182 2 3.724 2 5.597v12.667c0 1.872 1.31 3.414 3.055 3.745l4.472.88c.218.111.437.111.655.111a3.8 3.8 0 0 0 2.4-.881c.872-.771 1.418-1.762 1.418-2.974V4.825c0-1.1-.546-2.202-1.418-2.973-.764-.771-1.964-.991-3.055-.771m2.291 18.064c0 .44-.218.991-.545 1.212-.328.33-.873.44-1.31.33l-4.472-.881c-.764 0-1.31-.661-1.31-1.432V5.597c0-.771.546-1.432 1.31-1.652l4.473-.771h.327c.327 0 .764.11.982.33.327.33.545.771.545 1.322zM17.984 3h-1.837C15.46 3 15 3.447 15 4.118s.459 1.119 1.148 1.119h1.836c.918 0 1.72.783 1.72 1.677v9.172c0 .894-.802 1.677-1.72 1.677h-1.837c-.688 0-1.147.447-1.147 1.119 0 .67.459 1.118 1.148 1.118h1.836C20.164 20 22 18.21 22 16.085v-9.17C22 4.788 20.164 3 17.984 3"/><path fill="#000" d="M9 10c-.6 0-1 .444-1 1.111v1.778C8 13.556 8.4 14 9 14s1-.444 1-1.111V11.11c0-.666-.4-1.11-1-1.11"/></svg>
